X:1
T:Title
%%score 1 { 2 | 3 }
L:1/8
Q:1/4=105
M:4/4
K:Eb
V:1 treble nm="Grand Piano, Soprano"
V:2 bass nm="Choir Pad, Bass"
V:3 bass 
V:1
 [EG]2 [GB]2 [GB]>[FA] [EG]>[EA] | [EB]4 [Ec]4 | [EB]2 [EG]2 E>E [EF]>[EG] | [DF]6 z2 | %4
w: By~Joseph~B.~Sturdevant * * * * *||||
 [EG]2 [GB]2 [GB]>[FA] [EG]>[FA] | [GB]4 [Ac]4 | [GB]2 [EG]2 [EG]2 [DF]2 | E6 z2 | %8
w: ||||
 [DF]2 [DF]2 [EG]>[EF] E>[EF] | [EG]4 [GB]4 | [DF]2 [FB]2 [Fc]>[Fc] [FB]>[F=A] | [FB]6 z2 | %12
w: ||||
 [EG]2 [GB]2 [GB]>[EG] [FA]>[GB] | [Ac]4 [Ae]2 [Ac]2 | [GB]2 [EG]2 [EG]2 [DF]2 | E6 z2 | %16
w: ||||
 [DF]2 [DF]2 [EG]>[EF] E>[EF] | [EG]4 [GB]4 | [DF]2 [FB]2 [Fc]>[Fc] [FB]>[F=A] | [FB]6 z2 | %20
w: ||||
 [EG]2 [GB]2 [GB]>[EG] [FA]>[GB] | [Ac]4 [Ae]2 [Ac]2 | [GB]2 [EG]2 [EG]2 [DF]2 | E8 |] %24
w: ||||
V:2
 B,2 B,2 B,>B, B,>F, | G,4 G,4 | G,2 B,2 G,>G, A,>B, | B,6 z2 | B,2 E2 E>B, B,>B, | B,2 E2 E4 | %6
 E2 B,2 B,2 A,2 | G,6 z2 | B,2 B,2 B,>A, G,>A, | B,4 B,4 | B,2[K:treble] D2 E>E D>C | D6 z2 | %12
 E2 E2 E>B, B,>E | E4 C2 E2 | E2 B,2 B,2 A,2 | G,6 z2 | B,2 B,2 B,>A, G,>A, | B,4 B,4 | %18
 B,2[K:treble] D2 E>E D>C | D6 z2 | E2 E2 E>B, B,>E | E4 C2 E2 | E2 B,2 B,2 A,2 | G,8 |] %24
V:3
 E,2 E,2 E,>E, E,>E, | E,4 A,,2 C,2 | E,2 E,2 E,>E, E,>E, | B,,6 z2 | E,2 E,2 E,>E, E,>E, | %5
 E,4 A,,4 | B,,2 B,,2 B,,2 B,,2 | E,6 z2 | B,,2 B,,2 E,>E, E,>E, | E,4 E,4 | F,2 F,2 F,>F, F,>F, | %11
 B,,6 z2 | E,2 E,2 E,>E, E,>E, | A,4 A,2 A,2 | B,2 z2 B,,2 B,,2 | E,6 z2 | B,,2 B,,2 E,>E, E,>E, | %17
 E,4 E,4 | F,2 F,2 F,>F, F,>F, | B,,6 z2 | E,2 E,2 E,>E, E,>E, | A,4 A,2 A,2 | B,2 z2 B,,2 B,,2 | %23
 E,8 |] %24

